src/assets/images/vk_icon.svg

<svg width="37" height="34" viewBox="0 0 37 34" fill="none" xmlns="http://www.w3.org/2000/svg">
<path d="M2.60074 2.81958C0 5.1393 0 8.87316 0 16.34V17.66C0 25.1269 0 28.8608 2.60074 31.1804C5.20164 33.5 9.38809 33.5 17.76 33.5H19.24C27.612 33.5 31.7984 33.5 34.3992 31.1804C37 28.8608 37 25.1269 37 17.66V16.34C37 8.87309 37 5.13923 34.3992 2.81958C31.7984 0.5 27.612 0.5 19.24 0.5H17.76C9.38801 0.5 5.20156 0.5 2.60074 2.81958ZM6.24375 10.5376H10.4679C10.6067 16.8351 13.7208 19.5026 16.1875 20.0526V10.5375H20.165V15.9688C22.6008 15.735 25.16 13.26 26.0233 10.5375H30.0008C29.6754 11.9495 29.0269 13.2863 28.0958 14.4646C27.1647 15.6428 25.9711 16.637 24.5896 17.385C26.1321 18.068 27.4945 19.0352 28.5868 20.2228C29.6791 21.4103 30.4763 22.791 30.9258 24.2738H26.5475C26.1441 22.9858 25.3231 21.8329 24.1876 20.9596C23.0521 20.0863 21.6527 19.5315 20.165 19.365V24.2738H19.6871C11.2542 24.2738 6.44419 19.1175 6.24375 10.5375V10.5376Z" fill="black"/>
</svg>

<svg xmlns="http://www.w3.org/2000/svg" width="37" height="34" fill="none"><path fill="#000" d="M2.6 2.82C0 5.14 0 8.873 0 16.34v1.32c0 7.467 0 11.2 2.6 13.52 2.602 2.32 6.788 2.32 15.16 2.32h1.48c8.372 0 12.558 0 15.16-2.32C37 28.86 37 25.127 37 17.66v-1.32c0-7.467 0-11.2-2.6-13.52C31.797.5 27.611.5 19.24.5h-1.48C9.388.5 5.202.5 2.6 2.82Zm3.644 7.718h4.224c.139 6.297 3.253 8.965 5.72 9.515v-9.516h3.977v5.432c2.436-.234 4.995-2.709 5.858-5.431h3.978a9.936 9.936 0 0 1-1.905 3.927 11.33 11.33 0 0 1-3.506 2.92 12.043 12.043 0 0 1 3.997 2.838 10.487 10.487 0 0 1 2.339 4.05h-4.378c-.404-1.287-1.225-2.44-2.36-3.313-1.136-.874-2.535-1.428-4.023-1.595v4.909h-.478c-8.433 0-13.243-5.157-13.443-13.737Z"/></svg>
